Apricity Icons/apps/scalable/xmlcopyeditor.svg

<?xml version="1.0" encoding="UTF-8" standalone="no"?>
<svg
   xmlns:dc="http://purl.org/dc/elements/1.1/"
   xmlns:cc="http://creativecommons.org/ns#"
   xmlns:rdf="http://www.w3.org/1999/02/22-rdf-syntax-ns#"
   xmlns:svg="http://www.w3.org/2000/svg"
   xmlns="http://www.w3.org/2000/svg"
   xmlns:xlink="http://www.w3.org/1999/xlink"
   xmlns:sodipodi="http://sodipodi.sourceforge.net/DTD/sodipodi-0.dtd"
   xmlns:inkscape="http://www.inkscape.org/namespaces/inkscape"
   viewBox="0 0 48 48"
   id="svg2"
   version="1.1"
   inkscape:version="0.48.5 r10040"
   width="100%"
   height="100%"
   sodipodi:docname="xmlcopyeditor.svg">
  <metadata
     id="metadata61">
    <rdf:RDF>
      <cc:Work
         rdf:about="">
        <dc:format>image/svg+xml</dc:format>
        <dc:type
           rdf:resource="http://purl.org/dc/dcmitype/StillImage" />
      </cc:Work>
    </rdf:RDF>
  </metadata>
  <sodipodi:namedview
     pagecolor="#ffffff"
     bordercolor="#666666"
     borderopacity="1"
     objecttolerance="10"
     gridtolerance="10"
     guidetolerance="10"
     inkscape:pageopacity="0"
     inkscape:pageshadow="2"
     inkscape:window-width="1280"
     inkscape:window-height="998"
     id="namedview59"
     showgrid="false"
     inkscape:zoom="5.6568543"
     inkscape:cx="40.919706"
     inkscape:cy="11.639155"
     inkscape:window-x="0"
     inkscape:window-y="0"
     inkscape:window-maximized="1"
     inkscape:current-layer="svg2" />
  <defs
     id="defs4">
    <linearGradient
       id="linearGradient3764"
       x1="1"
       x2="47"
       gradientUnits="userSpaceOnUse"
       gradientTransform="matrix(0,-1,1,0,-1.5e-6,47.999998)">
      <stop
         stop-color="#e4e4e4"
         stop-opacity="1"
         id="stop7" />
      <stop
         offset="1"
         stop-color="#eee"
         stop-opacity="1"
         id="stop9" />
    </linearGradient>
    <clipPath
       id="clipPath-859608605">
      <g
         transform="translate(0,-1004.3622)"
         id="g12">
        <path
           d="m -24 13 c 0 1.105 -0.672 2 -1.5 2 -0.828 0 -1.5 -0.895 -1.5 -2 0 -1.105 0.672 -2 1.5 -2 0.828 0 1.5 0.895 1.5 2 z"
           transform="matrix(15.333333,0,0,11.5,414.99999,878.8622)"
           fill="#1890d0"
           id="path14" />
      </g>
    </clipPath>
    <clipPath
       id="clipPath-865410182">
      <g
         transform="translate(0,-1004.3622)"
         id="g17">
        <path
           d="m -24 13 c 0 1.105 -0.672 2 -1.5 2 -0.828 0 -1.5 -0.895 -1.5 -2 0 -1.105 0.672 -2 1.5 -2 0.828 0 1.5 0.895 1.5 2 z"
           transform="matrix(15.333333,0,0,11.5,414.99999,878.8622)"
           fill="#1890d0"
           id="path19" />
      </g>
    </clipPath>
    <clipPath
       clipPathUnits="userSpaceOnUse"
       id="clipPath3051">
      <rect
         style="fill:#0000ff"
         id="rect3053"
         width="97.796463"
         height="96.933556"
         x="-96.358276"
         y="-14.992428" />
    </clipPath>
    <linearGradient
       inkscape:collect="always"
       xlink:href="#linearGradient3764"
       id="linearGradient3837"
       gradientUnits="userSpaceOnUse"
       gradientTransform="matrix(0,-1,1,0,-1.5e-6,47.999998)"
       x1="1"
       x2="47" />
    <linearGradient
       inkscape:collect="always"
       xlink:href="#linearGradient3764"
       id="linearGradient3840"
       gradientUnits="userSpaceOnUse"
       gradientTransform="matrix(0,-1,1,0,-1.5e-6,47.999998)"
       x1="1"
       x2="47" />
    <linearGradient
       inkscape:collect="always"
       xlink:href="#linearGradient3764"
       id="linearGradient3850"
       gradientUnits="userSpaceOnUse"
       gradientTransform="matrix(0,-1,1,0,-1.5e-6,47.999998)"
       x1="1"
       x2="47" />
    <linearGradient
       inkscape:collect="always"
       xlink:href="#linearGradient3764"
       id="linearGradient3853"
       gradientUnits="userSpaceOnUse"
       gradientTransform="matrix(0,-1,1,0,-1.5e-6,47.999998)"
       x1="1"
       x2="47" />
    <linearGradient
       inkscape:collect="always"
       xlink:href="#linearGradient3764"
       id="linearGradient3862"
       gradientUnits="userSpaceOnUse"
       gradientTransform="matrix(0,-1,1,0,-1.5e-6,47.999998)"
       x1="1"
       x2="47" />
    <linearGradient
       inkscape:collect="always"
       xlink:href="#linearGradient3764"
       id="linearGradient3865"
       gradientUnits="userSpaceOnUse"
       gradientTransform="matrix(0,-1,1,0,-1.5e-6,47.999998)"
       x1="1"
       x2="47" />
    <linearGradient
       inkscape:collect="always"
       xlink:href="#linearGradient3764"
       id="linearGradient3871"
       gradientUnits="userSpaceOnUse"
       gradientTransform="matrix(0,-1,1,0,-1.5e-6,47.999998)"
       x1="1"
       x2="47" />
    <linearGradient
       inkscape:collect="always"
       xlink:href="#linearGradient3764"
       id="linearGradient3874"
       gradientUnits="userSpaceOnUse"
       gradientTransform="matrix(0,-1,1,0,-1.5e-6,47.999998)"
       x1="1"
       x2="47" />
  </defs>
  <path
     style="opacity:0.05"
     inkscape:connector-curvature="0"
     id="path23"
     d="m 36.31,5 c 5.859,4.062 9.688,10.831 9.688,18.5 0,12.426 -10.07,22.5 -22.5,22.5 -7.669,0 -14.438,-3.828 -18.5,-9.688 1.037,1.822 2.306,3.499 3.781,4.969 4.085,3.712 9.514,5.969 15.469,5.969 12.703,0 23,-10.298 23,-23 0,-5.954 -2.256,-11.384 -5.969,-15.469 C 39.81,7.306 38.132,6.037 36.31,5 z m 4.969,3.781 c 3.854,4.113 6.219,9.637 6.219,15.719 0,12.703 -10.297,23 -23,23 -6.081,0 -11.606,-2.364 -15.719,-6.219 4.16,4.144 9.883,6.719 16.219,6.719 12.703,0 23,-10.298 23,-23 0,-6.335 -2.575,-12.06 -6.719,-16.219 z" />
  <path
     style="opacity:0.1"
     inkscape:connector-curvature="0"
     id="path25"
     d="m 41.28,8.781 c 3.712,4.085 5.969,9.514 5.969,15.469 0,12.703 -10.297,23 -23,23 -5.954,0 -11.384,-2.256 -15.469,-5.969 4.113,3.854 9.637,6.219 15.719,6.219 12.703,0 23,-10.298 23,-23 0,-6.081 -2.364,-11.606 -6.219,-15.719 z" />
  <path
     style="opacity:0.2"
     inkscape:connector-curvature="0"
     id="path27"
     d="M 31.25,2.375 C 39.865,5.529 46,13.792 46,23.505 c 0,12.426 -10.07,22.5 -22.5,22.5 -9.708,0 -17.971,-6.135 -21.12,-14.75 a 23,23 0 0 0 44.875,-7 23,23 0 0 0 -16,-21.875 z" />
  <path
     inkscape:connector-curvature="0"
     style="fill:url(#linearGradient3874);fill-opacity:1"
     id="path31"
     d="M 24,1 C 36.703,1 47,11.297 47,24 47,36.703 36.703,47 24,47 11.297,47 1,36.703 1,24 1,11.297 11.297,1 24,1 z" />
  <path
     style="fill:#000000;fill-opacity:0.09803922;stroke:none"
     d="M 24.59375 2 C 23.971211 2 23.358002 2.042065 22.75 2.09375 C 22.613832 2.105325 22.479654 2.111692 22.34375 2.125 C 22.33336 2.12602 22.32289 2.12397 22.3125 2.125 C 22.29164 2.1242972 22.27076 2.12289 22.25 2.125 C 22.114042 2.138806 21.979057 2.171366 21.84375 2.1875 C 21.82337 2.18993 21.80162 2.18502 21.78125 2.1875 C 18.947567 2.5329643 16.261404 3.3769158 13.84375 4.65625 L 8.84375 8.25 C 7.5844571 9.4346736 6.4677073 10.749606 5.5 12.1875 C 5.4539352 12.255949 4.8938202 11.810272 4.625 11.65625 C 4.4720208 11.896271 4.3004594 12.129032 4.15625 12.375 L 16.0625 19.3125 L 9.46875 32.875 L 9.1875 32.75 L 3.84375 35.0625 C 4.0379495 35.415888 4.2255768 35.783234 4.4375 36.125 C 4.4404361 36.129735 4.4658106 36.120267 4.46875 36.125 L 9.875 33.84375 L 24.625 40.125 L 24.40625 47 C 24.741597 46.994192 25.07455 46.957514 25.40625 46.9375 L 25.625 40 L 33.25 32.625 L 42.65625 37.4375 C 42.852835 37.165096 43.033982 36.906175 43.21875 36.625 L 33.625 31.71875 L 32.40625 22.34375 L 43.21875 11.53125 C 43.14008 11.422683 43.045894 11.327109 42.96875 11.21875 L 43 11.1875 C 42.880071 11.028115 42.748965 10.874883 42.625 10.71875 C 38.410966 5.4111724 31.896899 2 24.59375 2 z M 21.8125 18.28125 L 31.4375 22.65625 L 32.65625 31.8125 L 29.46875 34.90625 L 25 39.21875 L 10.5 33 L 17.1875 19.40625 L 21.8125 18.28125 z "
     id="path3889" />
  <path
     style="fill:#486cd2;stroke:none;stroke-width:1px;stroke-linecap:butt;stroke-linejoin:miter;stroke-opacity:1;fill-opacity:1"
     d="M 24 1 C 23.22738 1 22.471793 1.0505921 21.71875 1.125 L 21.375 16.8125 L 31.25 21.28125 L 42.40625 10.1875 C 38.209468 4.609999 31.517987 1 24 1 z "
     id="path3856" />
  <path
     style="opacity:0.1"
     inkscape:connector-curvature="0"
     id="path57"
     d="m 40.03,7.531 c 3.712,4.084 5.969,9.514 5.969,15.469 0,12.703 -10.297,23 -23,23 C 17.045,46 11.615,43.744 7.53,40.031 11.708,44.322 17.54,47 23.999,47 c 12.703,0 23,-10.298 23,-23 0,-6.462 -2.677,-12.291 -6.969,-16.469 z" />
  <path
     style="fill:#c7442a;stroke:none;stroke-width:1px;stroke-linecap:butt;stroke-linejoin:miter;stroke-opacity:1;fill-opacity:0.85098039999999997"
     d="M 21.65625 1.125 C 18.65038 1.4302418 15.800386 2.3066788 13.25 3.65625 L 8.25 7.25 C 6.9145864 8.5062837 5.7239426 9.8952906 4.71875 11.4375 L 16.03125 18.125 L 21.34375 16.8125 L 21.75 1.125 C 21.718822 1.128038 21.687392 1.1218376 21.65625 1.125 z "
     id="path3844" />
  <path
     style="font-size:medium;font-style:normal;font-variant:normal;font-weight:normal;font-stretch:normal;text-indent:0;text-align:start;text-decoration:none;line-height:normal;letter-spacing:normal;word-spacing:normal;text-transform:none;direction:ltr;block-progression:tb;writing-mode:lr-tb;text-anchor:start;baseline-shift:baseline;color:#000000;fill:#2d2d2d;fill-opacity:1;stroke:none;stroke-width:1px;marker:none;visibility:visible;display:inline;overflow:visible;enable-background:accumulate;font-family:Sans;-inkscape-font-specification:Sans"
     d="M 22.15625 1.09375 C 21.830152 1.1196921 21.509623 1.1480979 21.1875 1.1875 L 20.84375 16.34375 L 16.09375 17.53125 L 4.90625 11.1875 C 4.7213761 11.462939 4.5481049 11.747551 4.375 12.03125 L 15.46875 18.3125 L 8.8125 31.9375 L 8.78125 31.9375 L 3.40625 34.21875 C 3.5572246 34.522566 3.711168 34.828991 3.875 35.125 L 9.28125 32.84375 L 24.03125 39.125 L 23.78125 47 C 23.854164 47.00068 23.926925 47 24 47 C 24.261258 47 24.522096 46.977392 24.78125 46.96875 L 25.03125 39 L 32.65625 31.625 L 43.03125 36.9375 C 43.218077 36.662785 43.387433 36.376803 43.5625 36.09375 L 33.03125 30.71875 L 31.8125 21.34375 L 42.625 10.53125 C 42.426988 10.257989 42.240803 9.9827737 42.03125 9.71875 L 31.1875 20.5625 L 21.84375 16.34375 L 22.15625 1.09375 z M 21.21875 17.28125 L 30.84375 21.65625 L 32.0625 30.8125 L 28.875 33.90625 L 24.40625 38.21875 L 9.90625 32 L 16.59375 18.40625 L 21.21875 17.28125 z "
     id="path3823" />
</svg>

<svg xmlns="http://www.w3.org/2000/svg" viewBox="0 0 48 48">
 <defs>
  <linearGradient id="linearGradient3874" gradientUnits="userSpaceOnUse" gradientTransform="matrix(0,-1,1,0,-1.5e-6,47.999998)" x1="1" x2="47">
   <stop style="stop-color:#e4e4e4;stop-opacity:1"/>
   <stop offset="1" style="stop-color:#eee;stop-opacity:1"/>
  </linearGradient>
 </defs>
 <path d="m 36.31,5 c 5.859,4.062 9.688,10.831 9.688,18.5 0,12.426 -10.07,22.5 -22.5,22.5 -7.669,0 -14.438,-3.828 -18.5,-9.688 1.037,1.822 2.306,3.499 3.781,4.969 4.085,3.712 9.514,5.969 15.469,5.969 12.703,0 23,-10.298 23,-23 0,-5.954 -2.256,-11.384 -5.969,-15.469 C 39.81,7.306 38.132,6.037 36.31,5 z m 4.969,3.781 c 3.854,4.113 6.219,9.637 6.219,15.719 0,12.703 -10.297,23 -23,23 -6.081,0 -11.606,-2.364 -15.719,-6.219 4.16,4.144 9.883,6.719 16.219,6.719 12.703,0 23,-10.298 23,-23 0,-6.335 -2.575,-12.06 -6.719,-16.219 z" style="opacity:0.05"/>
 <path d="m 41.28 8.781 c 3.712 4.085 5.969 9.514 5.969 15.469 0 12.703 -10.297 23 -23 23 -5.954 0 -11.384 -2.256 -15.469 -5.969 4.113 3.854 9.637 6.219 15.719 6.219 12.703 0 23 -10.298 23 -23 0 -6.081 -2.364 -11.606 -6.219 -15.719 z" style="opacity:0.1"/>
 <path d="M 31.25,2.375 C 39.865,5.529 46,13.792 46,23.505 c 0,12.426 -10.07,22.5 -22.5,22.5 -9.708,0 -17.971,-6.135 -21.12,-14.75 a 23,23 0 0 0 44.875,-7 23,23 0 0 0 -16,-21.875 z" style="opacity:0.2"/>
 <path d="m 42.4 10.197 -37.668 1.248 c -2.358 3.611 -3.732 7.921 -3.732 12.555 0 12.703 10.297 23 23 23 12.703 0 23 -10.297 23 -23 0 -5.179 -1.711 -9.958 -4.6 -13.803" style="fill:url(#linearGradient3874);fill-opacity:1"/>
 <path d="m 5.499 12.189 c -0.046 0.068 -0.606 -0.377 -0.875 -0.531 -0.153 0.24 -0.325 0.473 -0.469 0.719 l 11.906 6.938 -6.594 13.563 -0.281 -0.125 -5.344 2.313 c 0.194 0.353 0.382 0.721 0.594 1.063 0.003 0.005 0.028 -0.005 0.031 0 l 5.406 -2.281 14.75 6.281 -0.219 6.875 c 0.335 -0.006 0.668 -0.042 1 -0.063 l 0.219 -6.938 7.625 -7.375 9.406 4.813 c 0.197 -0.272 0.378 -0.531 0.563 -0.813 l -9.594 -4.906 -1.219 -9.375 10.813 -10.813 c -0.201 -0.283 -0.394 -0.523 -0.594 -0.813 -10.636 -10.812 -27.505 -12.691 -37.12 1.468 m 16.314 6.092 9.625 4.375 1.219 9.156 -3.188 3.094 l -4.469 4.313 -14.5 -6.219 6.688 -13.594" style="fill:#000;fill-opacity:0.098;stroke:none"/>
 <path d="m 24 1 c -0.773 0 -1.528 0.051 -2.281 0.125 l -0.344 15.688 l 9.875 4.469 l 11.156 -11.09 c -4.197 -5.578 -10.888 -9.188 -18.406 -9.188 z" style="fill:#486cd2;fill-opacity:1;stroke:none"/>
 <path d="m 40.03,7.531 c 3.712,4.084 5.969,9.514 5.969,15.469 0,12.703 -10.297,23 -23,23 C 17.045,46 11.615,43.744 7.53,40.031 11.708,44.322 17.54,47 23.999,47 c 12.703,0 23,-10.298 23,-23 0,-6.462 -2.677,-12.291 -6.969,-16.469 z" style="opacity:0.1"/>
 <path d="m 21.643 1.119 c -7.083 0.721 -13.21 4.659 -16.91 10.326 l 11.299 6.682 l 5.314 -1.314 l 0.406 -15.688 c -0.031 0.003 -0.065 -0.003 -0.096 0 c -0.005 -0.002 -0.009 -0.004 -0.014 -0.006 z" style="fill:#ca5a43;fill-opacity:1;stroke:none"/>
 <path d="m 22.16 1.094 c -0.326 0.026 -0.647 0.054 -0.969 0.094 l -0.344 15.16 l -4.75 1.188 l -11.188 -6.344 c -0.185 0.275 -0.358 0.56 -0.531 0.844 l 11.09 6.281 l -6.656 13.625 l -0.031 0 l -5.375 2.281 c 0.151 0.304 0.305 0.61 0.469 0.906 l 5.406 -2.281 l 14.75 6.281 l -0.25 7.875 c 0.073 0 0.146 0 0.219 0 c 0.261 0 0.522 -0.023 0.781 -0.031 l 0.25 -7.969 l 7.625 -7.375 l 10.375 5.313 c 0.187 -0.275 0.356 -0.561 0.531 -0.844 l -10.531 -5.375 l -1.219 -9.375 l 10.813 -10.813 c -0.198 -0.273 -0.384 -0.548 -0.594 -0.813 l -10.844 10.844 l -9.344 -4.219 l 0.313 -15.25 z m -0.938 16.188 l 9.625 4.375 l 1.219 9.156 l -3.188 3.094 l -4.469 4.313 l -14.5 -6.219 l 6.688 -13.594 l 4.625 -1.125 z" style="visibility:visible;fill:#2d2d2d;fill-opacity:1;stroke:none;display:inline;color:#000"/>
</svg>
